X:1
T:Title
%%score { ( 1 3 5 ) | ( 2 4 ) }
L:1/8
Q:1/4=100
M:4/4
K:Eb
V:1 treble nm="Grand Piano"
V:3 treble 
V:5 treble 
V:2 bass 
V:4 bass 
V:1
 G3 G F2 E2 | B3 B A2 G2 | c3 c d2 c2 | z4 A4 | A3 A G2 F2 | c3 c B2 A2 | f3 [EAe] [EAe]2 [FAd]2 | %7
w: Caryl~Florio * * *|||||||
 [EGe]2 [=A,EG]2 [B,DF]4 | B2 c2 A2 B2 | G2 BA G2 z A, | B2 c2 A2 B2 | G2 B=A G2 _G2 | %12
w: |||||
 G3 G G2 =A2 | B3 B B2 =B2 | c4 z4 | E2 F2 E4 |] %16
w: ||||
V:2
 [E,B,E]3 [E,B,E] [E,A,D]2 [E,G,]2 | [E,_DE]3 [E,DE] [E,CE]2 [E,B,E]2 | %2
 [E,A,E]3 [E,A,E] [E,A,F]2 [E,A,D]2 | [E,G,E]2 [C,G,]2 [F,F]4 | [F,CF]3 [F,CF] [F,B,=E]2 [F,A,]2 | %5
 [F,G,=E]3 [F,G,E] [F,_DE]2 [F,CF]2 | [B,,DA]3 B,, B,,2 B,,2 | B,,2 B,,2 B,,4 | %8
 [B,G]2 [B,=E]2 [B,F]2 [B,D]2 | [B,E]2 [CE]2[K:bass] [B,E]2 .[B,D]2 | %10
 [G,B,D]2 [E,G,C]2 [F,A,C]2 [D,F,B,]2 | [E,G,B,]2 G,=A, B,2 A,2 | %12
 [G,B,D]3 [F,=B,D] [E,C]2 [D,_G,C]2 | [G,B,]3 [F,A,D] [E,G,E]2 [E,G,_D]2 | %14
 [A,C]2 [A,,A,]2 [=A,,_G,]2 [A,,G,C]2 | [B,,G,B,]2 [B,,A,B,]2 [E,G,B,]4 |] %16
V:3
 x8 | x8 | x8 | B2 [=Ec]2 z2 A,2 | x8 | x8 | x8 | x8 | x8 | z4 z2 F2 | x8 | z2 E2 z4 | x8 | x8 | %14
 z2 z c [Dd]2 e2 | x8 |] %16
V:4
 x8 | x8 | x8 | x8 | x8 | x8 | x8 | x8 | x8 | x4[K:bass] x4 | x8 | z2 C,2 [D,D]4 | x8 | x8 | x8 | %15
 x8 |] %16
V:5
 x8 | x8 | x8 | x8 | x8 | x8 | x8 | x8 | x8 | x8 | x8 | x8 | x8 | x8 | z2 E2 z4 | x8 |] %16

